X:210
T:Doberman's Wallet
M:6/8
L:1/8
C:Frankie Gavin
R:Jig (Key of D)
K:Dmaj
"D"A2 F "A"EDE | "D"F2 D DFA | dcd B2 A | "A"FED EFG |
"D"A2 F "A"EDE | "D"FDD DFA | dcd B2A |1 "A"FDD D2 B :|2 "A"FDD "D"DFA||
"D"dcd cBA | "G"Bcd e2 d | "A"cAA "E"BAB | "A"cA^G A2A |
"D"dcd cBA | "G"Bcd edB | "D"AGF E"A"DE | "D"FDD DFA |
dcd cBA | "G"Bcd e2d | "A"cAA "E"BAB | "A"cA^G A2 e |
"D"fed cBA | "A"Bcd AGF | "G"GAB ABc | "A"dAF EFG |]
